X:205
T: Let's be Drinking!
T: B\'imid ag \'Ol
S: B.Breathnach: "Ceol Rince na hEireann" II/49
Z: B.Black
L: 1/8
M: 6/8
R: jig
K: Am
c|: GGA c2e|dcA c2A|GGA c2e|dcA A2G|
GGA c2e|dcA c2d|eaa ged|ecA A2G :|
aba gag|fed ecA|aba gag|ede g3|
aba gag|fed ecA|eee ede|cAA A3 :|
